src/assets/icons/weeks,simple,32.svg

<svg width="48" height="48" viewBox="0 0 48 48" fill="none" xmlns="http://www.w3.org/2000/svg">
<rect opacity="0.2" x="5" y="5" width="38" height="38" rx="4" fill="black"/>
<path d="M5 13C5 9.22876 5 7.34315 6.17157 6.17157C7.34315 5 9.22876 5 13 5H35C38.7712 5 40.6569 5 41.8284 6.17157C43 7.34315 43 9.22876 43 13V15H5V13Z" fill="black"/>
<path d="M16.3977 38.2386C20.3182 38.2386 23.1222 36.0824 23.1136 33.0994C23.1222 30.9261 21.7415 29.375 19.1761 29.0511V28.9148C21.1278 28.5653 22.4744 27.1847 22.4659 25.2244C22.4744 22.4716 20.0625 20.3068 16.4489 20.3068C12.8693 20.3068 10.1761 22.4034 10.125 25.4205H13.6619C13.7045 24.0909 14.9233 23.2301 16.4318 23.2301C17.9233 23.2301 18.9205 24.1335 18.9119 25.446C18.9205 26.8182 17.7528 27.7472 16.0739 27.7472H14.446V30.4574H16.0739C18.0511 30.4574 19.2869 31.446 19.2784 32.8523C19.2869 34.2415 18.0938 35.196 16.4062 35.196C14.7784 35.196 13.5597 34.3438 13.4915 33.0653H9.77557C9.83523 36.1165 12.5625 38.2386 16.3977 38.2386ZM25.7663 38H38.2095V34.983H30.88V34.8636L33.4283 32.3665C37.0163 29.0938 37.9794 27.4574 37.9794 25.4716C37.9794 22.446 35.5078 20.3068 31.7663 20.3068C28.1016 20.3068 25.5874 22.4972 25.5959 25.9233H29.0987C29.0902 24.2528 30.147 23.2301 31.7408 23.2301C33.2749 23.2301 34.4169 24.1847 34.4169 25.7188C34.4169 27.108 33.5646 28.0625 31.9794 29.5881L25.7663 35.3409V38Z" fill="black"/>
</svg>

<svg xmlns="http://www.w3.org/2000/svg" width="48" height="48" fill="none" viewBox="0 0 48 48">
  <rect width="38" height="38" x="5" y="5" fill="#000" opacity=".2" rx="4"/>
  <path fill="#000" d="M5 13c0-3.771 0-5.657 1.172-6.828C7.343 5 9.229 5 13 5h22c3.771 0 5.657 0 6.828 1.172C43 7.343 43 9.229 43 13v2H5v-2zM16.398 38.239c3.92 0 6.724-2.157 6.716-5.14.008-2.173-1.373-3.724-3.938-4.048v-.136c1.952-.35 3.298-1.73 3.29-3.69.008-2.753-2.404-4.918-6.017-4.918-3.58 0-6.273 2.096-6.324 5.114h3.537c.042-1.33 1.261-2.19 2.77-2.19 1.491 0 2.489.902 2.48 2.215.009 1.372-1.16 2.301-2.838 2.301h-1.628v2.71h1.628c1.977 0 3.213.989 3.204 2.395.009 1.39-1.184 2.344-2.872 2.344-1.628 0-2.846-.852-2.914-2.13H9.776c.06 3.05 2.787 5.173 6.622 5.173zM25.766 38H38.21v-3.017h-7.33v-.12l2.548-2.496c3.588-3.273 4.551-4.91 4.551-6.895 0-3.026-2.471-5.165-6.213-5.165-3.664 0-6.179 2.19-6.17 5.616h3.503c-.009-1.67 1.048-2.693 2.642-2.693 1.534 0 2.676.955 2.676 2.489 0 1.389-.852 2.343-2.438 3.87l-6.213 5.752V38z"/>
</svg>
